icons/action-accrued-not-invoiced-empty.svg

<svg
  xmlns="http://www.w3.org/2000/svg"
  viewBox="0 0 500 500"
  width="500"
  height="500"
  fill="#ffffff"
>
  <path d="M477.46 417.15v-17.21h-302l-19 .06.84 19c.37 8.35-1.35 28.22-9 36.25-1.61 1.68-3.89 3.39-8.71 3.39-4.08 0-6.87-1.08-9.31-3.61-7.83-8.12-9.75-27.88-9.45-36.13V56.73a62.36 62.36 0 0 0-2.42-15.36h237.72c4.87 1.19 13.62 5.07 13.62 17.63v309.52h36.37V59c0-37-29.69-51.34-45.38-53.75L359.37 5H73.83c-34 0-48.67 29.48-51.66 45.06l-.33 1.7v60.88h62.59v305.15c-.2 5.8-.53 41.46 19.52 62.36 9.31 9.72 21.62 14.85 35.59 14.85h283.82c20.61 0 32.94-9.26 39.65-17 17.99-20.85 15.42-52.9 14.45-60.85z" />
  <path d="M226.81 297.27a19.54 19.54 0 0 1-13.81-5.74l-48.17-48.17a19.6 19.6 0 1 1 27.72-27.72L226.81 250l80.69-80.68A19.6 19.6 0 0 1 335.22 197l-94.55 94.55a19.51 19.51 0 0 1-13.86 5.72z" />
</svg>

<svg xmlns="http://www.w3.org/2000/svg" viewBox="0 0 500 500">
  <g id="action-accrued-not-invoiced-empty">
    <g id="invoiceOutline">
      <path d="M477.46,417.15V399.94h-302l-19,.06.84,19c.37,8.35-1.35,28.22-9,36.25-1.61,1.68-3.89,3.39-8.71,3.39-4.08,0-6.87-1.08-9.31-3.61-7.83-8.12-9.75-27.88-9.45-36.13V56.73a62.36,62.36,0,0,0-2.42-15.36H356.13C361,42.56,369.75,46.44,369.75,59V368.52h36.37V59c0-37-29.69-51.34-45.38-53.75L359.37,5H73.83c-34,0-48.67,29.48-51.66,45.06l-.33,1.7v60.88H71.23l13.2,0V417.79c-.2,5.8-.53,41.46,19.52,62.36,9.31,9.72,21.62,14.85,35.59,14.85H423.36c20.61,0,32.94-9.26,39.65-17C481,457.15,478.43,425.1,477.46,417.15Z"/>
    </g>
    <path d="M226.81,297.27A19.54,19.54,0,0,1,213,291.53l-48.17-48.17a19.6,19.6,0,1,1,27.72-27.72L226.81,250l80.69-80.68A19.6,19.6,0,0,1,335.22,197l-94.55,94.55A19.51,19.51,0,0,1,226.81,297.27Z"/>
  </g>
</svg>
